dist/img/svg/clock.svg

<svg width="22" height="22" viewBox="0 0 22 22" fill="none" xmlns="http://www.w3.org/2000/svg">
<g clip-path="url(#clip0_82_1603)">
<circle cx="11" cy="11" r="11" fill="#78C081"/>
<path d="M18.7782 3.2218C16.7005 1.14417 13.9382 0 11 0C8.0618 0 5.29947 1.14417 3.2218 3.2218C1.14413 5.29942 0 8.0618 0 11C0 13.9382 1.14417 16.7005 3.2218 18.7782C5.29942 20.8559 8.0618 22 11 22C13.9382 22 16.7005 20.8558 18.7782 18.7782C20.8559 16.7006 22 13.9382 22 11C22 8.0618 20.8558 5.29947 18.7782 3.2218ZM18.2921 18.2921C16.3443 20.2398 13.7546 21.3125 11 21.3125C8.24545 21.3125 5.65572 20.2398 3.70795 18.2921C1.76017 16.3443 0.6875 13.7546 0.6875 11C0.6875 8.24545 1.76017 5.65572 3.70795 3.70795C5.65572 1.76017 8.24545 0.6875 11 0.6875C13.7546 0.6875 16.3443 1.76017 18.2921 3.70795C20.2398 5.65572 21.3125 8.24545 21.3125 11C21.3125 13.7546 20.2398 16.3443 18.2921 18.2921Z" fill="#577A5B"/>
<path d="M17.4818 4.51808C15.7504 2.78673 13.4484 1.83325 10.9999 1.83325C8.55142 1.83325 6.24947 2.78673 4.51808 4.51808C2.78669 6.24944 1.83325 8.55142 1.83325 10.9999C1.83325 13.4484 2.78673 15.7504 4.51808 17.4818C6.24944 19.2131 8.55142 20.1666 10.9999 20.1666C13.4484 20.1666 15.7504 19.2131 17.4818 17.4818C19.2131 15.7504 20.1666 13.4484 20.1666 10.9999C20.1666 8.55142 19.2131 6.24947 17.4818 4.51808ZM17.0766 17.0766C15.4535 18.6998 13.2954 19.5937 10.9999 19.5937C8.70446 19.5937 6.54635 18.6998 4.92321 17.0766C3.30006 15.4535 2.40617 13.2954 2.40617 10.9999C2.40617 8.70446 3.30006 6.54635 4.92321 4.92321C6.54635 3.30006 8.70446 2.40617 10.9999 2.40617C13.2954 2.40617 15.4535 3.30006 17.0766 4.92321C18.6998 6.54635 19.5937 8.70446 19.5937 10.9999C19.5937 13.2954 18.6998 15.4535 17.0766 17.0766Z" fill="#577A5B"/>
<path d="M10.9999 5.01302C11.1739 5.01302 11.315 4.87193 11.315 4.69792V3.7526C11.315 3.57859 11.1739 3.4375 10.9999 3.4375C10.8259 3.4375 10.6848 3.57859 10.6848 3.7526V4.69792C10.6848 4.87193 10.8259 5.01302 10.9999 5.01302Z" fill="#577A5B"/>
<path d="M10.6848 17.3022V18.2475C10.6848 18.4215 10.8259 18.5626 10.9999 18.5626C11.1739 18.5626 11.315 18.4215 11.315 18.2475V17.3022C11.315 17.1281 11.1739 16.9871 10.9999 16.9871C10.8259 16.9871 10.6848 17.1281 10.6848 17.3022Z" fill="#577A5B"/>
<path d="M5.01302 10.9999C5.01302 10.8259 4.87193 10.6848 4.69792 10.6848H3.7526C3.57859 10.6848 3.4375 10.8259 3.4375 10.9999C3.4375 11.1739 3.57859 11.315 3.7526 11.315H4.69792C4.87193 11.315 5.01302 11.1739 5.01302 10.9999Z" fill="#577A5B"/>
<path d="M16.9871 10.9999C16.9871 11.1739 17.1281 11.315 17.3022 11.315H18.2475C18.4215 11.315 18.5626 11.1739 18.5626 10.9999C18.5626 10.8259 18.4215 10.6848 18.2475 10.6848H17.3022C17.1281 10.6848 16.9871 10.8259 16.9871 10.9999Z" fill="#577A5B"/>
<path d="M8.12172 5.38471L7.64906 4.56603C7.56205 4.41529 7.36933 4.36373 7.21863 4.4507C7.06793 4.53771 7.01629 4.73044 7.1033 4.88114L7.57596 5.69982C7.63433 5.80089 7.74024 5.85741 7.84915 5.85741C7.9026 5.85741 7.9568 5.84378 8.00643 5.81514C8.15709 5.72814 8.20872 5.53541 8.12172 5.38471Z" fill="#577A5B"/>
<path d="M14.424 16.3001C14.337 16.1494 14.1442 16.0979 13.9935 16.1848C13.8428 16.2718 13.7912 16.4645 13.8782 16.6152L14.3509 17.4339C14.4092 17.535 14.5151 17.5915 14.6241 17.5915C14.6775 17.5915 14.7317 17.5779 14.7813 17.5492C14.932 17.4622 14.9837 17.2695 14.8967 17.1188L14.424 16.3001Z" fill="#577A5B"/>
<path d="M4.72387 14.9388C4.77732 14.9388 4.83152 14.9252 4.88114 14.8966L5.69982 14.4239C5.85052 14.3369 5.90216 14.1442 5.81515 13.9935C5.72814 13.8428 5.53538 13.7912 5.38472 13.8782L4.56604 14.3508C4.41534 14.4378 4.3637 14.6306 4.45071 14.7813C4.50905 14.8823 4.61496 14.9388 4.72387 14.9388Z" fill="#577A5B"/>
<path d="M16.458 8.16419C16.5114 8.16419 16.5656 8.15056 16.6153 8.12193L17.434 7.64927C17.5847 7.56226 17.6363 7.36954 17.5493 7.21884C17.4623 7.06814 17.2696 7.01658 17.1189 7.10351L16.3002 7.57617C16.1495 7.66317 16.0978 7.8559 16.1848 8.0066C16.2432 8.10767 16.3491 8.16419 16.458 8.16419Z" fill="#577A5B"/>
<path d="M14.7813 4.45074C14.6306 4.36369 14.4379 4.41533 14.3509 4.56607L13.8782 5.38475C13.7912 5.53545 13.8428 5.72817 13.9935 5.81518C14.0432 5.84385 14.0973 5.85744 14.1508 5.85744C14.2597 5.85744 14.3656 5.80092 14.424 5.69985L14.8967 4.88117C14.9836 4.73047 14.932 4.53775 14.7813 4.45074Z" fill="#577A5B"/>
<path d="M8.00639 16.1848C7.85569 16.0978 7.66296 16.1495 7.57596 16.3002L7.1033 17.1189C7.01629 17.2696 7.06793 17.4623 7.21863 17.5493C7.26826 17.578 7.32242 17.5915 7.3759 17.5915C7.48481 17.5915 7.59073 17.535 7.6491 17.434L8.12176 16.6153C8.20873 16.4646 8.15709 16.2719 8.00639 16.1848Z" fill="#577A5B"/>
<path d="M16.3002 14.424L17.1188 14.8966C17.1685 14.9253 17.2226 14.9389 17.2761 14.9389C17.385 14.9389 17.4909 14.8824 17.5493 14.7813C17.6363 14.6306 17.5847 14.4379 17.434 14.3509L16.6153 13.8782C16.4646 13.7912 16.2719 13.8429 16.1849 13.9935C16.0978 14.1442 16.1495 14.337 16.3002 14.424Z" fill="#577A5B"/>
<path d="M5.69982 7.57597L4.88114 7.10332C4.73045 7.01627 4.53772 7.06795 4.45071 7.21865C4.3637 7.36934 4.41534 7.56207 4.56604 7.64908L5.38472 8.12173C5.43435 8.15041 5.48851 8.164 5.542 8.164C5.6509 8.164 5.75682 8.10748 5.81519 8.00641C5.90216 7.85571 5.85052 7.66298 5.69982 7.57597Z" fill="#577A5B"/>
<path d="M13.1936 15.1142C13.247 15.1142 13.3012 15.1006 13.3509 15.0719C13.5016 14.9849 13.5532 14.7922 13.4662 14.6415L11.7182 11.6138C11.8596 11.4485 11.9453 11.2342 11.9453 11.0001C11.9453 10.5893 11.6818 10.239 11.3151 10.109V5.95841C11.3151 5.7844 11.174 5.64331 11 5.64331C10.826 5.64331 10.6849 5.7844 10.6849 5.95841V10.109C10.3182 10.239 10.0547 10.5893 10.0547 11.0001C10.0547 11.5213 10.4787 11.9454 11 11.9454C11.059 11.9454 11.1166 11.9397 11.1726 11.9293L12.9204 14.9566C12.9788 15.0577 13.0847 15.1142 13.1936 15.1142ZM10.6849 11.0001C10.6849 10.8263 10.8263 10.685 11 10.685C11.1737 10.685 11.3151 10.8263 11.3151 11.0001C11.3151 11.1738 11.1737 11.3152 11 11.3152C10.8263 11.3152 10.6849 11.1738 10.6849 11.0001Z" fill="#577A5B"/>
</g>
<defs>
<clipPath id="clip0_82_1603">
<rect width="22" height="22" fill="white"/>
</clipPath>
</defs>
</svg>

<svg width="22" height="22" fill="none" xmlns="http://www.w3.org/2000/svg"><g clip-path="url(#clip0_82_1603)"><circle cx="11" cy="11" r="11" fill="#78C081"/><path d="M18.778 3.222A10.928 10.928 0 0011 0C8.062 0 5.3 1.144 3.222 3.222A10.928 10.928 0 000 11c0 2.938 1.144 5.7 3.222 7.778A10.928 10.928 0 0011 22c2.938 0 5.7-1.144 7.778-3.222A10.928 10.928 0 0022 11c0-2.938-1.144-5.7-3.222-7.778zm-.486 15.07A10.245 10.245 0 0111 21.312a10.245 10.245 0 01-7.292-3.02A10.245 10.245 0 01.688 11c0-2.755 1.072-5.344 3.02-7.292A10.245 10.245 0 0111 .688c2.755 0 5.344 1.072 7.292 3.02A10.245 10.245 0 0121.312 11c0 2.755-1.072 5.344-3.02 7.292z" fill="#577A5B"/><path d="M17.482 4.518A9.107 9.107 0 0011 1.833c-2.449 0-4.75.954-6.482 2.685A9.107 9.107 0 001.833 11a9.11 9.11 0 002.685 6.482A9.107 9.107 0 0011 20.167a9.11 9.11 0 006.482-2.685A9.107 9.107 0 0020.167 11c0-2.449-.954-4.75-2.685-6.482zm-.405 12.559A8.537 8.537 0 0111 19.594a8.537 8.537 0 01-6.077-2.517A8.537 8.537 0 012.406 11c0-2.296.894-4.454 2.517-6.077A8.537 8.537 0 0111 2.406a8.54 8.54 0 016.077 2.517A8.537 8.537 0 0119.594 11a8.537 8.537 0 01-2.517 6.077z" fill="#577A5B"/><path d="M11 5.013a.315.315 0 00.315-.315v-.945a.315.315 0 00-.63 0v.945c0 .174.14.315.315.315zm-.315 12.289v.945a.315.315 0 00.63 0v-.945a.315.315 0 10-.63 0zM5.013 11a.315.315 0 00-.315-.315h-.945a.315.315 0 000 .63h.945A.315.315 0 005.013 11zm11.974 0c0 .174.141.315.315.315h.945a.315.315 0 000-.63h-.945a.315.315 0 00-.315.315zM8.122 5.385l-.473-.819a.315.315 0 00-.546.315l.473.819a.315.315 0 10.546-.315zM14.424 16.3a.315.315 0 00-.546.315l.473.819a.315.315 0 10.546-.315l-.473-.819zm-9.7-1.361a.314.314 0 00.157-.042l.819-.473a.315.315 0 10-.315-.546l-.819.473a.315.315 0 00.158.588zm11.734-6.775a.314.314 0 00.157-.042l.819-.473a.315.315 0 00-.315-.545l-.819.472a.315.315 0 00.158.588zM14.781 4.45a.315.315 0 00-.43.116l-.473.819a.315.315 0 10.546.315l.473-.819a.315.315 0 00-.116-.43zM8.006 16.185a.315.315 0 00-.43.115l-.473.819a.315.315 0 10.546.315l.473-.819a.315.315 0 00-.116-.43zm8.294-1.761l.819.473a.313.313 0 00.43-.116.315.315 0 00-.115-.43l-.819-.473a.315.315 0 00-.315.546zM5.7 7.576l-.819-.473a.315.315 0 10-.315.546l.819.473a.313.313 0 00.43-.116.315.315 0 00-.115-.43zm7.494 7.538a.315.315 0 00.273-.473l-1.749-3.027a.947.947 0 00-.403-1.505v-4.15a.315.315 0 00-.63 0v4.15a.946.946 0 00.488 1.82l1.747 3.028a.315.315 0 00.274.157zM10.684 11a.315.315 0 11.632 0 .315.315 0 01-.631 0z" fill="#577A5B"/></g><defs><clipPath id="clip0_82_1603"><path fill="#fff" d="M0 0h22v22H0z"/></clipPath></defs></svg>
